X:1
T:James Gibb editions
T:Inveterata sunt - Lasso
T:#
%%score [ 1 2 3 4 ]
L:1/8
Q:1/4=80
M:4/4
K:C
V:1 treble nm="Alto I"
V:2 treble nm="Alto II"
V:3 treble-8 nm="tenor"
V:4 bass nm="Bass"
V:1
"^Inveterata sunt""^Orlando di Lasso\n(1532-94)" z8 | z2 A2 A2 A2 | (c3 B AGFE | F3 E/D/ EF E2) | %4
w: |In- ve- te-|ra\- * * * * *||
 F2 A2 (A3 B | c2) (A3 G F2- | FE/D/ E2) D2 C2 |[M:4/4] z2 F2 _B2 G2 | G4 A2 F2 | A4 A2 (A2- | %10
w: ta sunt os\- *|* sa * *|* * * * me- a,|in di- es|ex- pe- ctant|do- lo- res|
 AG/F/ G2) (EFGA | Bc B3 A A2- | A^G/^F/ G2) A4 | A4 A2 A2 | A2 _B2 A4 | F4 _B4- | B2 _B2 A2 F2 | %17
w: * * * * mor\- * * *||* * * * tis,|ut ra- ti-|o- nem red-|dam vil\-|* li- ca- ti-|
 (F3 E/D/ G2) A2 | G4 C4 | z2 F4 D2 | A4 A4- | A4 D4 | E8 | ^F2 (G3 =F/E/ F2) | E4 F4- | %25
w: o\- * * * nis|me- ae,|an- te|con- spe\-|* ctum|Re-|dem- pto\- * * *|ris, qui|
 F2 E2 D2 D2 | A4 F4 | z2 F2 E2 F2 | (G2 FE D2) (A2- | AG/F/ E2) E4 | E2 F2 (E3 ^F | %31
w: * pro no- bis|pas- sus|pec- ca- ta|no\- * * * stra|* * * * lu-|it in cru\- *|
 G2) A2 D2 (G2- | GF F4 ED | F2) E2 A2 G2 | G4 c4- | c2 A2 A3 A | %36
w: * cis pa- ti\-||* bu- lo, in|cru- cis|* pa- ti- bu-|
[Q:1/4=79] ^F2[Q:1/4=77] F2[Q:1/4=75] G4 |[Q:1/4=73] ^F2[Q:1/4=71] A2[Q:1/4=70] G2[Q:1/4=68] D2 | %38
w: lo, in cru-|cis pa- ti- bu-|
[Q:1/4=68] !fermata!D8 |] %39
w: lo.|
V:2
 z8 | z8 | z4 z2 A2 | A2 A2 (c3 B | AGFE F2) D2 | A2 c4 A2 | G4 A2 A2 |[M:4/4] d6 !courtesy!=B2 | %8
w: ||In-|ve- te- ra\- *|* * * * * ta|sunt os- sa|me- a, in|di- es|
 B2 c4 A2 | z2 (d3 c/B/ c2) | (B3 AGF E2- | E2) G2 E4 | E4 z2 C2 | F6 F2 | E2 G2 E4 | A2 d4 d2 | %16
w: ex- pe- ctant|do\- * * *|lo\- * * * *|* res mor-|tis, ut|ra- ti-|o- nem red-|dam vil- li-|
 d4 c2 A2 | (A3 G/F/ E2) (F2- | FE/D/ E2) F4 | c4 (A3 B | c2) F2 C4 | D2 F3 F G2 | A4 z2 A2- | %23
w: ca- ti- o-|nis * * * me\-|* * * * ae,|an- te *|* con- spe-|ctum Re- dem- pto-|ris, Re\-|
 A2 _B2 A4 | A8- | A4 z2 d2- | d2 c2 _B2 B2 | A4 G2 C2 | C4 G2 F2 | E2 (A3 ^G/^F/ G2) | %30
w: * dem- pto-|ris,|* qui|* pro no- bis|pas- sus pec-|ca- ta no-|stra lu\- * * *|
 A2 A2 G2 A2 | _B2 (d3 c B2- | BA A4) G2 | A2 A2 c4- | c2 _B2 (A3 G | F4) E3 E | A2 A2 _B4 | %37
w: it in cru- cis|pa- ti\- * *|* * * bu-|lo, in cru\-|* cis pa\- *|* ti- bu-|lo, in cru-|
 A2 D4 G2- | G2 ^F2 !fermata!F4 |] %39
w: cis pa- ti\-|* bu- lo.|
V:3
 d4 d2 d2 | (f3 e defd | e2) (f3 edc | d3 c/B/ A2) A2 | (d3 cde f2- | f2) F2 F4 | c2 c2 f4- | %7
w: In- ve- te-|ra\- * * * * *|* ta * * *|* * * * sunt|os\- * * * *|* sa me-|a, in di\-|
[M:4/4][K:treble-8] f2 d2 z2 d2 | e4 A4 | f4 e4- | e2 B2 (c2 BA | GABG c4 | B4) A4 | z2 d2 c2 c2 | %14
w: * es ex-|pe- ctant|do- lo\-|* res mor\- * *||* tis,|ut ra- ti-|
 c2 (d3 ^c/B/ c2) | d4 f2 f2 | f2 f4 c2 | d2 A2 c4- | c4 A4- | A4 z2 f2- | f2 d2 z2 f2- | %21
w: o- nem * * *|red- dam vil-|li- ca- ti-|o- nis me\-|* ae,|* an\-|* te, an\-|
 f2 d2 z2 (d2- | dc/B/ c2) B2 ^c2 | d4 d2 (d2- | d^c/B/ c2) (d3 =c/_B/ | A4) f4- | f2 e2 d2 d2 | %27
w: * te con\-|* * * * spe- ctum|Re- dem- pto\-|* * * * ris, * *|* qui|* pro no- bis|
 c4 c2 A2 | G2 A2 _B2 d2 | (c3 B/A/ B4) | c4 z2 A2 | d4 _B2 d2 | (d3 c _B2) B2 | A3 A e4 | %34
w: pas- sus pec-|ca- ta no- stra|lu\- * * *|it in|cru- cis pa-|ti\- * * bu-|lo, in cru-|
 (d3 e f2) e2- | e2 d4 ^c2 | d2 d4 d2- | dd A2 _B3 B | !fermata!A8 |] %39
w: cis * * pa\-|* ti- bu-|lo, in cru\-|* cis pa- ti- bu-|lo.|
V:4
 z8 | z8 | z8 | z8 | z8 | z8 | z4 z2 F,2 |[M:4/4] _B,4 G,4 | z2 E,2 F,4 | D,4 A,4 | E,4 E,4 | %11
w: ||||||in|di- es|ex- pe-|ctant do-|lo- res|
 E,4 (C,3 D, | E,4) z2 F,2 | D,2 D,2 (F,3 G, | A,2 G,2 A,4 | D,2 _B,4 B,2 | _B,2 B,2 F,4 | %17
w: mor- tis, *|* ut|ra- ti- o\- *|* nem red-|dam vil- li-|ca- ti- o-|
 D,4 C,4- | C,4 F,4- | F,4 z4 | z4 F,4 | D,2 D,2 _B,4 | A,4 ^G,2 A,2 | D,8 | A,4 z2 D2- | %25
w: nis me\-|* ae,||an-|te con- spe-|ctum Re- dem-|pto-|ris, qui|
 D2 C2 _B,2 B,2 | A,4 _B,4) | F,4 z2 F,2 | E,2 F,2 G,2 D,2 | (A,3 G,/F,/ E,4) | A,2 F,2 C4 | %31
w: * pro no- bis|pas\- *|sus pec-|ca- ta no- stra|lu\- * * *|it in cru-|
 G,2 ^F,2 G,3 G, | D,2 D,2 D4- | D2 C2 (A,B,CC, | G,4 A,4) | A,3 A, A,4 | z2 D,2 G,4 | %37
w: cis pa- ti- bu-|lo, in cru\-|* cis pa\- * * *||ti- bu- lo,|in cru-|
 D,2 ^F,2 G,3 G, | !fermata!D,8 |] %39
w: cis pa- ti- bu-|lo.|

